X:364
T: WENN MAN BIM BUREN DIENT
N: E1541
O: Europa, Mitteleuropa, Deutschland, Hannover, Calenberg
R: Staende -, Bauern - Lied, Spott
M: 3/4
L: 1/8
K: F
 | F2F2G2 | A3Bc2 |
B2A2G2 | F4z2 |
B2B2G2 | A3GF2 |
c3BA2 | G4z2 |
G2G2F2 | E3DC2 |
G2G2F2 | E3DC2 |
F4AB | c4
BA | B2A2G2 | c6 |
F4AB | c4
BA | B2A2G2 | F4z2

@@@ Tune index: 5048
